svg/regular/bx-message-x.svg

<svg xmlns="http://www.w3.org/2000/svg" width="24" height="24"><path d="M20 2H4c-1.103 0-2 .897-2 2v12c0 1.103.897 2 2 2h3v3.767L13.277 18H20c1.103 0 2-.897 2-2V4c0-1.103-.897-2-2-2zm0 14h-7.277L9 18.233V16H4V4h16v12z"/><path d="M9.707 13.707 12 11.414l2.293 2.293 1.414-1.414L13.414 10l2.293-2.293-1.414-1.414L12 8.586 9.707 6.293 8.293 7.707 10.586 10l-2.293 2.293z"/></svg>

<svg xmlns="http://www.w3.org/2000/svg" width="24" height="24" viewBox="0 0 24 24"><path d="M20,2H4C2.897,2,2,2.897,2,4v12c0,1.103,0.897,2,2,2h3v3.767L13.277,18H20c1.103,0,2-0.897,2-2V4C22,2.897,21.103,2,20,2z M20,16h-7.277L9,18.233V16H4V4h16V16z"/><path d="M9.707 13.707L12 11.414 14.293 13.707 15.707 12.293 13.414 10 15.707 7.707 14.293 6.293 12 8.586 9.707 6.293 8.293 7.707 10.586 10 8.293 12.293z"/></svg>
